!!!!SEGMENT: Gsc3008-Je_my_scauroys_chanter.krn
!!!id: Gsc2008
!!!AGN: Chanson
!!!voices: 4
!!!COM: Mathieu Gascongne
!!!OTL: Je my sçauroys chanter
**kern	**kern	**kern	**kern
*part4	*part3	*part2	*part1
*staff4	*staff3	*staff2	*staff1
*I"Bassus	*I"Tenor	*I"Altus	*I"Superius
*I'B	*I'T	*I'A	*I'S
*clefF4	*clefGv2	*clefGv2	*clefG2
*k[b-]	*k[b-]	*k[b-]	*k[b-]
*F:	*F:	*F:	*F:
*M2/1	*M2/1	*M2/1	*M2/1
*met(C|)	*met(C|)	*met(C|)	*met(C|)
0r	2r	2r	1r
.	2F	2c	.
.	2.B-y	1d	2r
.	.	.	2f
.	4A	.	.
=1	=1	=1	=1
2r	1G	1e	1g
2C	.	.	.
2.F	1r	1c	1a
4E	.	.	.
=2	=2	=2	=2
1D	2r	1r	1f
.	2F	.	.
1r	2B-y	2r	2r
.	2A	2c	2f
=3	=3	=3	=3
2r	1G	2d	1g
2C	.	2e	.
2.F	1F	2c	1a
.	.	2c	.
4E	.	.	.
=4	=4	=4	=4
2D	2r	2B-y	1f
2F	2c	2A	.
2.B-y	2.d	4G	2r
.	.	4A	.
.	.	4B-y	2b-y
4A	4c	4c	.
=5	=5	=5	=5
2G	2B-y	2d	4b-y
.	.	.	4a
1C	2c	2.e	4g
.	.	.	4f
.	4c	.	2g
.	4B-y	4d	.
[2F	4A	4c	[2a
.	4G	4B-y	.
=6	=6	=6	=6
2F]	2F	1c	4a]
.	.	.	4g
2E	2G	.	1g
1D	2A	2d	.
.	2B-y	[2f	2f
=7	=7	=7	=7
0C	2.c	2f]	0g
.	.	4e	.
.	4B-y	4d	.
.	1c	1e	.
=8	=8	=8	=8
0r	1F	2r	1a
.	.	2f	.
.	1r	2.d	2a
.	.	.	2a
.	.	4e	.
=9	=9	=9	=9
0r	0r	2f	1.a
.	.	2c	.
.	.	2d	.
.	.	4B-y	2b-y
.	.	4c	.
=10	=10	=10	=10
0r	0r	4d	2a
.	.	4e	.
.	.	1f	4g
.	.	.	4f
.	.	.	2g
.	.	2e	2g
=11	=11	=11	=11
2r	2r	1f	2f
2F	2c	.	2a
2.D	2d	2r	2a
.	2d	2f	2a
4E	.	.	.
=12	=12	=12	=12
1.F	2.c	2.f	1.a
.	4B-y	4e	.
.	2A	2f	.
2E	2G	[2g	2b-y
=13	=13	=13	=13
2F	2.A	4g]	2a
.	.	4f	.
2D	.	1f	4g
.	4B-y	.	4f
1C	1c	.	2g
.	.	2e	2g
=14	=14	=14	=14
1F	1A	2f	0f
.	.	2c	.
1r	1r	2d	.
.	.	2d	.
=15	=15	=15	=15
2r	1A	4c	0r
.	.	4B-y	.
2F	.	4A	.
.	.	4G	.
2.D	2A	2F	.
.	2A	2f	.
4E	.	.	.
=16	=16	=16	=16
2F	1.A	2f	0r
2C	.	2e	.
2D	.	1f	.
4BB-y	2B-y	.	.
4C	.	.	.
=17	=17	=17	=17
4D	2A	0r	0r
4E	.	.	.
1F	4G	.	.
.	4F	.	.
.	1G	.	.
2E	.	.	.
=18	=18	=18	=18
0F	1F	2r	0r
.	.	2c	.
.	1r	2d	.
.	.	2d	.
=19	=19	=19	=19
2r	2r	4c	1a
.	.	4B-y	.
2F	2c	4A	.
.	.	4G	.
2.D	2d	2F	2a
.	2d	2f	2a
4E	.	.	.
=20	=20	=20	=20
1.F	2.c	2f	1.a
.	.	4e	.
.	4B-y	4d	.
.	2A	2c	.
2E	2G	[2e	2b-y
=21	=21	=21	=21
2F	2A	2e]	2a
2D	2B-y	1d	4g
.	.	.	4f
1E	1G	.	2g
.	.	2c#i	2g
=22	=22	=22	=22
1D	1A	1d	1f
2r	2r	2r	2r
2D	2A	[2d	2f
=23	=23	=23	=23
1G	1B-y	2d]	1g
.	.	2e	.
1F	1c	1f	1a
=24	=24	=24	=24
1BB-y	1B-y	1d	1f
2r	2r	2r	2r
2D	2A	[2d	2f
=25	=25	=25	=25
1G	1B-y	2d]	1g
.	.	2e	.
1F	1c	1f	1a
=26	=26	=26	=26
2BB-y	1B-y	2.d	1f
2B-y	.	.	.
.	.	4e	.
4B-y	2r	2f	2r
4A	.	.	.
4G	2d	2g	2b-y
4F	.	.	.
=27	=27	=27	=27
1.G	4d	4g	4b-y
.	4c	4f	4a
.	4B-y	4e	4g
.	4A	4d	4f
.	2B-y	2e	2g
2F	2c	2f	[2a
=28	=28	=28	=28
2G	2B-y	2e	4a]
.	.	.	4g
2E	2G	2c	1g
1D	1A	1d	.
.	.	.	2f#i
=29	=29	=29	=29
1G	1G	1B-y	0g
1C	2r	2r	.
.	2c	2G	.
=30	=30	=30	=30
2r	2c	2.A	1r
2F	2c	.	.
.	.	4A	.
2D	2.d	2B-y	2r
2D	.	2A	2f
.	4c	.	.
=31	=31	=31	=31
2E-X	1B-y	1G	2g
2E-i	.	.	2g
2F	2A	2F	2a
2F	2c	2A	2a
=32	=32	=32	=32
2r	2c	2.A	2f
2F	2c	.	2f
.	.	4A	.
2D	2.d	2B-y	2r
2D	.	2A	2f
.	4c	.	.
=33	=33	=33	=33
2E-i	1B-y	1G	2g
2E-i	.	.	2g
2F	1A	2F	2a
2F	.	2f	2a
=34	=34	=34	=34
2r	2r	4f	2f
.	.	4e	.
2F	2A	4d	2f
.	.	4c	.
2D	2A	2d	1r
[2G	[2B-y	[2e	.
=35	=35	=35	=35
2G]	4B-]	4e]	0r
.	4A	4d	.
2F	1A	1d	.
1E	.	.	.
.	2G	2c#i	.
=36	=36	=36	=36
0D	0A	1d	0r
.	.	2r	.
.	.	2f	.
=37	=37	=37	=37
2r	1r	2f	2r
2F	.	2f	2f
2.c	2r	2e	2g
.	2c	2e	2g
4B-y	.	.	.
=38	=38	=38	=38
2A	2c	2f	2a
2F	2c	2f	2a
2.B-y	2d	1r	2f
.	2d	.	2f
4A	.	.	.
=39	=39	=39	=39
1F	2c	2r	1r
.	2c	2f	.
2r	1r	2f	2r
2F	.	2f	2f
=40	=40	=40	=40
2.c	2r	2e	2g
.	2c	2e	2g
4B-y	.	.	.
2A	2c	2f	2a
2F	2c	2f	2a
=41	=41	=41	=41
2.B-y	2d	1r	2f
.	2d	.	2f
4A	.	.	.
1F	2c	1f	1r
.	[2c	.	.
=42	=42	=42	=42
1G	2c]	2e	1b-y
.	2B-y	2.d	.
2F	2c	.	2a
.	.	4c	.
2E	2c	[2c	[2g
=43	=43	=43	=43
1D	1F	2c]	2g]
.	.	2BnXi	1f
1C	1G	[1c	.
.	.	.	2e
=44	=44	=44	=44
0F	0F	1c]	0f
.	.	2r	.
.	.	2f	.
=45	=45	=45	=45
2r	1r	2f	2r
2F	.	2f	2f
2.c	2r	2e	2g
.	2c	2e	2g
4B-y	.	.	.
=46	=46	=46	=46
2A	2c	2f	2a
2F	2c	2f	2a
2.B-y	2d	1r	2f
.	2d	.	2f
4A	.	.	.
=47	=47	=47	=47
1F	2c	2r	1r
.	2c	2f	.
2r	1r	2f	2r
2F	.	2f	2f
=48	=48	=48	=48
2.c	2r	2e	2g
.	2c	2e	2g
4B-y	.	.	.
2A	2c	2f	2a
2F	2c	2f	2a
=49	=49	=49	=49
2.B-y	2d	1r	2f
.	2d	.	2f
4A	.	.	.
1F	2c	1f	1r
.	[2c	.	.
=50	=50	=50	=50
1G	2c]	2e	1b-y
.	2B-y	2.d	.
2F	2c	.	2a
.	.	4c	.
2E	2c	[2c	[2g
=51	=51	=51	=51
1D	1F	2c]	4g]
.	.	.	4f
.	.	2BnXi	1f
1C	1G	[1c	.
.	.	.	2e
=52	=52	=52	=52
0F	2.F	1c]	1f
.	4G	.	.
.	4A	1f	1r
.	4B-y	.	.
.	[2c	.	.
=53	=53	=53	=53
1G	2c]	2e	1b-y
.	2B-y	2.d	.
2F	2c	.	2a
.	.	4c	.
2E	2c	[2c	[2g
=54	=54	=54	=54
1D	1F	2c]	4g]
.	.	.	4f
.	.	2BnXi	1f
1C	1G	1c	.
.	.	.	2e
=55	=55	=55	=55
00Fl	00Fl	00cl	00fl
==	==	==	==
*-	*-	*-	*-
!!!system-decoration: [*]
!!!RDF**kern: i = editorial accidental
!!!RDF**kern: l = terminal long
!!!ENC: Benjamin Ory
!!!END: 2024/4/18
!!!EED: Benjamin Ory
!!!EEV: 2024/04/18
!!!YEC: Copyright 2024 Benjamin Ory, All Rights Reserved
!!!ONB: Translated from MusicXML on 2024/04/18